!!!COM: Corelli, Arcangelo
!!!OTL: Sonata da camera
!!!OPS: 4
!!!ONM: 8
!!!OMV: 1
!!!OMD: Preludio: Grave
**kern	**fb	**kern	**kern	**kern
*part4	*part4	*part3	*part2	*part1
*staff4	*	*staff3	*staff2	*staff1
*clefF4	*	*clefF4	*clefG2	*clefG2
*k[]	*	*k[]	*k[]	*k[]
*M3/2	*	*M3/2	*M3/2	*M3/2
=1	=1	=1	=1	=1
1.r	.	1.r	1.r	2d
.	.	.	.	2f
.	.	.	.	2a
=	=	=	=	=
1.r	.	1.r	2d	1dd
.	.	.	2f	.
.	.	.	2a	2cc#X
=	=	=	=	=
2D	.	2D	1dd	1ff
2F	6	2F	.	.
2A	#	2A	2cc#X	[2ee
=	=	=	=	=
1d	9	1d	1ff	2ee]
.	8	.	.	2dd
2F#X	#5\	2F#X	[2a	2cc
=	=	=	=	=
1G	9 -	1G	2a]	1b-X
.	8	.	2d	.
2C#X	6	2C#X	2e	[2a
=	=	=	=	=
2D	.	2D	2f	2a]
1BB-X	6	1BB-X	1d	1g
=	=	=	=	=
2AA	#	2AA	1.c#X	1a
2A	.	2A	.	.
2G	.	2G	.	[2ee
=	=	=	=	=
1F	7	1F	1r	2ee]
.	6	.	.	(4dd
.	.	.	.	4ee)
2D	.	2D	[2aa	2ff
=	=	=	=	=
1E	5 4	1E	2aa]	[1.b
.	#	.	(4gg#X	.
.	.	.	4aa)	.
2D	6	2D	2bb	.
=	=	=	=	=
1C	7	1C	[1.ee	2b]
.	6	.	.	(4a
.	.	.	.	4b)
2C	.	2C	.	2cc
=	=	=	=	=
1D	9	1D	2ee]	2f
.	8	.	(4dd	2a
.	.	.	4ee)	.
2D	.	2D	2ff	[2dd
=	=	=	=	=
2E	7 #	2E	2g#X	2dd]
2F	5	2F	[1a	2cc
2D	6 5	2D	.	2b
=	=	=	=	=
2E	6 4	2E	2a]	2cc
1EE	5 4	1EE	2.a	1b
.	#	.	4g#X	.
=	=	=	=	=
1.AA	.	1.AA	1.a	2a
.	.	.	.	2.ee
.	.	.	.	4ee
=	=	=	=	=
1.r	.	1.r	2r	2aa
.	.	.	2.ee	2.gg
.	.	.	4ee	4aa
=	=	=	=	=
2r	.	2r	2aa	2ff
2.A	7 #	2.A	2.gg	1ee
4A	.	4A	4aa	.
=	=	=	=	=
2d	.	2d	2ff	2r
2.c	6 #4|	2.c	2.ff#X	2.aa
4d	.	4d	4ff#	4aa
=	=	=	=	=
2B-X	6	2B-X	2gg	1.dd
2.Bn	-r5	2.Bn	2.ffni	.
4B	.	4B	4gg	.
=	=	=	=	=
2c	.	2c	2ee	2r
2.B-X	6 4	2.B-X	2.ee	2.gg
4c	.	4c	4ee	4gg
=	=	=	=	=
2A	6	2A	2ff	[1.cc
2E	6	2E	2gg	.
2F	.	2F	2aa	.
=	=	=	=	=
2BB-X	9	2BB-X	2dd	2cc]
2C	-7	2C	2ee	2b-X
2D	5	2D	[2ff	[2a
=	=	=	=	=
2BB-X	7 5	2BB-X	2ff]	2a]
1C	5 4	1C	2.ff	1g
.	3	.	4ee	.
=	=	=	=	=
1FF	5	1FF	1.ff	2f
.	6	.	.	[1dd
2F	.	2F	.	.
=	=	=	=	=
2G	-	2G	2r	2dd]
2A	#	2A	[1ee	(4cc#X
.	.	.	.	4dd)
2AA	.	2AA	.	2ee
=	=	=	=	=
1D	9	1D	2ee]	[1.ff
.	8	.	(4dd	.
.	.	.	4ee)	.
2d	.	2d	2ff	.
=	=	=	=	=
1G	7 -	1G	[1.b-X	2ff]
.	6	.	.	(4ee
.	.	.	.	4ff)
2G	5	2G	.	2gg
=	=	=	=	=
1A	-9 #	1A	2b-]	2cc#X
.	8 4	.	2a	2dd
2C#X	5	2C#X	2g	[2ee
=	=	=	=	=
1D	9 3	1D	2f#X	2ee]
.	8 4	.	2g	2dd
2FF#X	-r5	2FF#X	[2a	2ccni
=	=	=	=	=
1GG	9 -	1GG	2a]	1b-X
.	8	.	2d	.
2GG	.	2GG	[2g	2b-
=	=	=	=	=
2AA	7 #	2AA	2g]	2c#X
2BB-X	5	2BB-X	2f	[1d
2GG	6 5	2GG	2e	.
=	=	=	=	=
2AA	6 4	2AA	2f	2d]
1AA	5 4	1AA	1e	2.d
.	#	.	.	4c#X
=	=	=	=	=
2D	#	2D	1.d	2d
2F#X	6	2F#X	.	2.dd
2D	.	2D	.	.
.	.	.	.	4ccni
=	=	=	=	=
2G	-	2G	2r	2b-X
1F#X	6	1F#X	2.dd	1a
.	.	.	4cc	.
=	=	=	=	=
2G	-	2G	2b-X	2r
2F#X	6	2F#X	1a	2.dd
2D	.	2D	.	.
.	.	.	.	4cc
=	=	=	=	=
2G	.	2G	2r	2b-X
1F#X	6	1F#X	2.dd	1a
.	.	.	4cc	.
=	=	=	=	=
1GG	-	1GG	1b-X	1d
[2AA	#	[2AA	[2a	[2c#X
=	=	=	=	=
2AA]	.	2AA]	2a]	2c#]
1BB-X	6	1BB-X	1g	1d
=	=	=	=	=
1.AA;	#	1.AA;	1.a;	1.c#X;
==	==	==	==	==
*-	*-	*-	*-	*-
!!!system-decoration: [{s1,s2},s3,s4]
!!!YEM: CC BY-NC-SA 4.0; CCARH; DCML
!!!RDF**kern: i = editorial accidental